packages/core/src/svgs/tokens/mono/JOY.svg

<svg width="24" height="24" viewBox="0 0 24 24" fill="none" xmlns="http://www.w3.org/2000/svg">
<path d="M2 18.8734V21.6667H22V18.8734C22 18.2067 21.48 17.6667 20.84 17.6667H3.16C2.51999 17.6667 2 18.2067 2 18.8734Z" fill="white"/>
<path d="M10.4443 10.5557H13.5555V16.7779H10.4443V10.5557Z" fill="white"/>
<path d="M7.33333 16.1866V17.6665H16.6668V16.1866C16.6632 16.0463 16.6045 15.913 16.5034 15.8156C16.4023 15.7184 16.267 15.6647 16.1267 15.6666H7.86667C7.72635 15.6647 7.59098 15.7184 7.4899 15.8156C7.3888 15.913 7.33016 16.0463 7.32666 16.1866H7.33333Z" fill="white"/>
<path d="M12.0002 11.6667C14.5775 11.6667 16.6669 9.57726 16.6669 6.99993C16.6669 4.42259 14.5775 2.33325 12.0002 2.33325C9.42283 2.33325 7.3335 4.42259 7.3335 6.99993C7.3335 9.57726 9.42283 11.6667 12.0002 11.6667Z" fill="white"/>
<path d="M14.5465 3.83323C14.0252 3.46624 13.41 3.25576 12.7731 3.22656C12.4665 3.24657 11.8599 3.3999 11.8599 3.83323C11.8599 4.3799 12.3931 4.91324 12.7265 5.20657C13.0531 5.4999 13.8398 6.02657 14.7065 6.02657C15.5731 6.02657 15.6665 5.50658 15.6665 5.3599C15.6665 5.21323 15.5731 4.49324 14.5465 3.83323Z" fill="white"/>
</svg>

<svg xmlns="http://www.w3.org/2000/svg" width="24" height="24" fill="none" viewBox="0 0 24 24">
    <path fill="#fff" d="M2 18.873v2.794h20v-2.794c0-.666-.52-1.206-1.16-1.206H3.16c-.64 0-1.16.54-1.16 1.206m8.444-8.317h3.111v6.222h-3.11z"/>
    <path fill="#fff" d="M7.333 16.187v1.48h9.334v-1.48a.534.534 0 0 0-.54-.52h-8.26a.533.533 0 0 0-.54.52zM12 11.667a4.667 4.667 0 1 0 0-9.334 4.667 4.667 0 0 0 0 9.334"/>
    <path fill="#fff" d="M14.547 3.833a3.35 3.35 0 0 0-1.774-.606c-.306.02-.913.173-.913.606 0 .547.533 1.08.867 1.374.326.293 1.113.82 1.98.82.866 0 .96-.52.96-.667s-.094-.867-1.12-1.527"/>
</svg>
